svg/u1f997.svg

<svg viewBox="0 0 128 128" xmlns="http://www.w3.org/2000/svg">
  <path d="M53.11,72.74c0,0,6.51-9.54,8.63-12.61c3.05-4.4,7.73-10.13,9.53-12.38S76,41.22,79,41.37 c3,0.15,3.84,3.18,4.13,4.43c0.53,2.25,2.7,10.96,3.9,17.86c1.2,6.9,3.15,18.76,3.15,18.76l-5.33-1.88c0,0-4.4-16.68-5.25-20.86 c-1-4.9-0.58-6.4-1.2-7.2c-0.61-0.78-4.41,7.27-6,10.06c-3.6,6.3-6.68,11.03-6.68,11.03L53.11,72.74z" fill="#9C7866"/>
  <path d="M25.86,63.3c-0.47,0-0.89-0.31-1.03-0.78c-0.03-0.1-2.93-10.23-11.58-23.57 c-5.31-8.2-12.1-15.07-12.17-15.14c-0.41-0.42-0.41-1.09,0.01-1.51c0.42-0.41,1.09-0.41,1.51,0.01c0.07,0.07,7.01,7.1,12.45,15.48 c8.84,13.64,11.72,23.74,11.84,24.16c0.16,0.57-0.17,1.15-0.74,1.31C26.06,63.29,25.96,63.3,25.86,63.3z" fill="#BA967D"/>
  <path d="M30.67,63c-0.55,0-1.01-0.42-1.06-0.98c-0.01-0.08-0.75-8.61-2.54-18.05 c-1.61-8.51-5.02-17.44-5.05-17.53c-0.21-0.55,0.06-1.17,0.61-1.38c0.55-0.21,1.17,0.06,1.38,0.61c0.03,0.09,3.51,9.2,5.16,17.89 c1.81,9.56,2.56,18.18,2.57,18.27c0.05,0.59-0.39,1.1-0.97,1.15C30.73,63,30.7,63,30.67,63z" fill="#BA967D"/>
  <path d="M47.18,73.79l7.05-3c0,0,3.3-0.9,8.86-1.65c5.55-0.75,10.66-0.6,10.66-0.6l-1.35,4.8 c0,0,14.56,2.55,20.41,4.05c5.85,1.5,10.36,4.8,10.36,4.8s4.63-0.65,7.65-1.95c4.35-1.88,9.98-6.3,9.76-5.18 c-0.24,1.19-1.95,2.78-2.85,3.68c-0.9,0.9-2.85,2.78-2.85,2.78s1.95-0.23,3.3-0.83c1.35-0.6,4.01-1.92,3.75-1.2 c-0.6,1.65-4.2,4.73-7.65,5.93c-3.45,1.2-9.01,2.18-9.01,2.18s0.04,2.64-2.4,5.85c-2.85,3.75-12.76,8.41-24.32,7.65 C66.99,100.36,50,96.96,44.1,91.06c-3-3-5.4-3.6-5.4-3.6s-3.3,5.4-9.98,5.55c-4.95,0.11-10.73-6.15-11.33-12.08 C16.61,73.32,47.18,73.79,47.18,73.79z" fill="#6C4D42"/>
  <path d="M37.12,84.15c0,0,0.83,3.08,4.35,5.7s11.08-2.66,12.76-11.11c1.35-6.8,0.15-8,0.15-8 s-2.85-4.15-9.83-5.43c-4.32-0.79-7.65,0.08-7.65,0.08L37.12,84.15z" fill="#52352A"/>
  <path d="M74.57,69.59c-0.38,1.06-3.03,7.67-6.9,10.28c-3.9,2.63-8.26,3.98-12.68,3.9 c-4.43-0.08-5.03-1.73-5.03-1.73l1.43-0.38c0,0,6.7,0.05,10.91-1.83s6.58-3.62,8.61-6.5c1.43-2.03,2.1-3.6,2.7-4.58 C74,68.11,74.95,68.54,74.57,69.59z" fill="#52352A"/>
  <path d="M24.48,91.69c0,0,1.35,0.75,2.63,1.05c1.28,0.3,2.89,0.11,2.89,0.11s-3.83,5.7-4.88,7.35 s-3.38,4.04-4.88,4.49c-1.1,0.33-3.96,0.34-5.7,0.23c-2.25-0.15-5.18-0.3-5.4-1.65c-0.13-0.77,0.2-3.26,3.83-3.45 c2.85-0.15,4.58,1.65,5.03,1.2C19.04,99.96,24.48,91.69,24.48,91.69z" fill="#B99680"/>
  <path d="M16.93,69.29c-1.2-1.58-4.35-1.28-4.35,2.4c0,4.13,1.99,5.37,3.3,5.85c1.43,0.53,1.65-5.48,1.65-5.48 S18.13,70.87,16.93,69.29z" fill="#040000"/>
  <path d="M28.12,58.49c-1.8,0-7.98,0.37-11.18,5.93c-2.55,4.43-2.07,10.96-1.35,14.71 c0.75,3.9,3.94,12.45,12.83,12.38c9.98-0.08,18.29-19.6,8.93-29.64C34.27,58.56,29.92,58.49,28.12,58.49z" fill="#B99680"/>
  <path d="M32.8,70.34c-1.79-1.96-6.5-1.78-7.88,2.6c-1.01,3.19,0.81,7.46,4.03,7.46 C32.8,80.4,36.32,74.19,32.8,70.34z" fill="#020200"/>
  <path d="M44.51,66.66c-2.08,0.74-0.67,3.39-0.81,4.52c-0.14,1.13-1.18,2.95,0.54,3.9 c1.98,1.08,4.53-0.92,4.51-4.08S46.67,65.89,44.51,66.66z" fill="#865E53"/>
  <path d="M44.63,85.5c-2.07-1.18-4.8-0.98-6.9,3.08c-2.1,4.05-6.23,13.88-7.43,16.36 c-1.2,2.48-3.73,7.16-4.5,7.49c-0.53,0.23-1.43-1.95-5.4-1.58c-3.98,0.38-6.08,4.8-4.8,5.33c1.28,0.53,4.05,0.6,7.05,0.53 c2.7-0.07,5.93-0.3,6.83-0.98c0.9-0.68,4.53-5.2,6.6-8.61c3.15-5.18,6.68-11.26,8.33-14.48C45.27,90.92,47.25,87,44.63,85.5z" fill="#B99680"/>
  <path d="M55.38,93.36c1.34,2,4.43,3.93,13.81-1.8c10.03-6.13,22.66-25.54,23.61-26.77 c1.35-1.73,2.44-3.45,2.85-3c0.55,0.6,0.53,3.68,1.58,7.05c0.87,2.78,6.55,20.38,7.23,22.56c1.25,4,4.46,15.81,5.53,17.02 c1.2,1.35,4.65,0.68,7.08,1.38c2.07,0.6,5,2,6.2,1.2s0.98-4.6-5.3-6.3c-4.38-1.19-4.53-0.78-4.53-0.78s-10.68-44.71-11.93-49.11 c-1.22-4.3-1.88-4.8-3.15-4.88c-2.71-0.16-11.16,8.96-14.56,12.46S72.17,75.17,61.51,82.8C59.88,83.97,53.18,90.08,55.38,93.36z" fill="#B99680"/>
  <path d="M100.81,53.63c-0.26,0-0.52-0.13-0.67-0.36c-0.24-0.37-0.14-0.87,0.23-1.11l2.9-1.9 c0.37-0.24,0.87-0.14,1.11,0.23c0.24,0.37,0.14,0.87-0.23,1.11l-2.9,1.9C101.11,53.59,100.96,53.63,100.81,53.63z" fill="#D4785D"/>
  <path d="M101.61,57.63c-0.32,0-0.62-0.19-0.74-0.51c-0.16-0.41,0.04-0.88,0.45-1.04l4.1-1.6 c0.41-0.16,0.87,0.04,1.03,0.45c0.16,0.41-0.04,0.88-0.45,1.04l-4.1,1.6C101.81,57.62,101.71,57.63,101.61,57.63z" fill="#D4785D"/>
  <path d="M102.91,60.74" fill="none" stroke="#D4785D" stroke-linecap="round" stroke-miterlimit="10" stroke-width="1.5"/>
  <path d="M102.71,61.64c-0.36,0-0.68-0.24-0.77-0.61c-0.11-0.43,0.15-0.86,0.58-0.97l4-1 c0.42-0.1,0.86,0.15,0.97,0.58c0.11,0.43-0.15,0.86-0.58,0.97l-4,1C102.84,61.63,102.78,61.64,102.71,61.64z" fill="#D4785D"/>
  <path d="M81.1,42.63" fill="none" stroke="#D4785D" stroke-linecap="round" stroke-miterlimit="10" stroke-width="1.5"/>
  <path d="M81.1,43.43c-0.23,0-0.46-0.1-0.62-0.3c-0.28-0.34-0.22-0.85,0.12-1.12l2.6-2.1 c0.34-0.28,0.85-0.23,1.13,0.12c0.28,0.34,0.22,0.85-0.12,1.12l-2.6,2.1C81.45,43.37,81.28,43.43,81.1,43.43z" fill="#D4785D"/>
  <path d="M82.8,46.83c-0.34,0-0.65-0.22-0.76-0.56c-0.13-0.42,0.1-0.87,0.52-1l3.8-1.2 c0.42-0.13,0.87,0.1,1,0.52c0.13,0.42-0.1,0.87-0.52,1l-3.8,1.2C82.96,46.82,82.88,46.83,82.8,46.83z" fill="#D4785D"/>
  <path d="M83.5,49.33" fill="none" stroke="#D4785D" stroke-linecap="round" stroke-miterlimit="10" stroke-width="1.5"/>
  <path d="M84,50.73c-0.4,0-0.75-0.3-0.79-0.71c-0.05-0.44,0.27-0.83,0.71-0.88l3.7-0.4 c0.43-0.04,0.83,0.27,0.88,0.71c0.05,0.44-0.27,0.83-0.71,0.88l-3.7,0.4C84.06,50.73,84.03,50.73,84,50.73z" fill="#D4785D"/>
  <path d="M45.38,90.56c0.46,2.54,6.9,1.2,9.41,0.3c2.15-0.77,6-2.7,7.4-2.5c1.4,0.2,7.2,11.01,8.41,13.41 c1.2,2.4,4.5,8.51,5.4,10.16c0.79,1.45,1.7,3.15,3.3,3.65c1.6,0.5,3.15,1.25,4.65,1.83c1.48,0.57,4.38,3.59,6.23,2.03 c1.95-1.65-0.35-4.05-1.35-4.95c-1-0.9-2.17-1.75-4.05-2.4c-2.18-0.75-3.28-1.08-3.68-1.28c-0.4-0.2-7.22-15.17-9.31-19.34 c-1.7-3.4-4.1-8.71-5.6-9.81c-1.5-1.1-12.41,1.3-13.51,1.8s-1.63,1.66-3.9,3.5C47.18,88.25,45.18,89.45,45.38,90.56z" fill="#9C7866"/>
</svg>

<svg viewBox="0 0 128 128" xmlns="http://www.w3.org/2000/svg">
  <defs/>
  <path d="M53.11,72.74 C53.11,72.74 59.62,63.2 61.74,60.13 C64.79,55.73 69.47,50 71.27,47.75 C73.07,45.5 76,41.22 79,41.37 C82,41.52 82.84,44.55 83.13,45.8 C83.66,48.05 85.83,56.76 87.03,63.66 C88.23,70.56 90.18,82.42 90.18,82.42 L84.85,80.54 C84.85,80.54 80.45,63.86 79.6,59.68 C78.6,54.78 79.02,53.28 78.4,52.48 C77.79,51.7 73.99,59.75 72.4,62.54 C68.8,68.84 65.72,73.57 65.72,73.57 L53.11,72.74 Z" fill="#9C7866"/>
  <path d="M25.86,63.3 C25.39,63.3 24.97,62.99 24.83,62.52 C24.8,62.42 21.9,52.29 13.25,38.95 C7.94,30.75 1.15,23.88 1.08,23.81 C0.67,23.39 0.67,22.72 1.09,22.3 C1.51,21.89 2.18,21.89 2.6,22.31 C2.67,22.38 9.61,29.41 15.05,37.79 C23.89,51.43 26.77,61.53 26.89,61.95 C27.05,62.52 26.72,63.1 26.15,63.26 C26.06,63.29 25.96,63.3 25.86,63.3 Z" fill="#BA967D"/>
  <path d="M30.67,63 C30.12,63 29.66,62.58 29.61,62.02 C29.6,61.94 28.86,53.41 27.07,43.97 C25.46,35.46 22.05,26.53 22.02,26.44 C21.81,25.89 22.08,25.27 22.63,25.06 C23.18,24.85 23.8,25.12 24.01,25.67 C24.04,25.76 27.52,34.87 29.17,43.56 C30.98,53.12 31.73,61.74 31.74,61.83 C31.79,62.42 31.35,62.93 30.77,62.98 C30.73,63 30.7,63 30.67,63 Z" fill="#BA967D"/>
  <path d="M47.18,73.79 L54.23,70.79 C54.23,70.79 57.53,69.89 63.09,69.14 C68.64,68.39 73.75,68.54 73.75,68.54 L72.4,73.34 C72.4,73.34 86.96,75.89 92.81,77.39 C98.66,78.89 103.17,82.19 103.17,82.19 C103.17,82.19 107.8,81.54 110.82,80.24 C115.17,78.36 120.8,73.94 120.58,75.06 C120.34,76.25 118.63,77.84 117.73,78.74 C116.83,79.64 114.88,81.52 114.88,81.52 C114.88,81.52 116.83,81.29 118.18,80.69 C119.53,80.09 122.19,78.77 121.93,79.49 C121.33,81.14 117.73,84.22 114.28,85.42 C110.83,86.62 105.27,87.6 105.27,87.6 C105.27,87.6 105.31,90.24 102.87,93.45 C100.02,97.2 90.11,101.86 78.55,101.1 C66.99,100.36 50,96.96 44.1,91.06 C41.1,88.06 38.7,87.46 38.7,87.46 C38.7,87.46 35.4,92.86 28.72,93.01 C23.77,93.12 17.99,86.86 17.39,80.93 C16.61,73.32 47.18,73.79 47.18,73.79 Z" fill="#6C4D42"/>
  <path d="M37.12,84.15 C37.12,84.15 37.95,87.23 41.47,89.85 C44.99,92.47 52.55,87.19 54.23,78.74 C55.58,71.94 54.38,70.74 54.38,70.74 C54.38,70.74 51.53,66.59 44.55,65.31 C40.23,64.52 36.9,65.39 36.9,65.39 L37.12,84.15 Z" fill="#52352A"/>
  <path d="M74.57,69.59 C74.19,70.65 71.54,77.26 67.67,79.87 C63.77,82.5 59.41,83.85 54.99,83.77 C50.56,83.69 49.96,82.04 49.96,82.04 L51.39,81.66 C51.39,81.66 58.09,81.71 62.3,79.83 C66.51,77.95 68.88,76.21 70.91,73.33 C72.34,71.3 73.01,69.73 73.61,68.75 C74,68.11 74.95,68.54 74.57,69.59 Z" fill="#52352A"/>
  <path d="M24.48,91.69 C24.48,91.69 25.83,92.44 27.11,92.74 C28.39,93.04 30,92.85 30,92.85 C30,92.85 26.17,98.55 25.12,100.2 C24.07,101.85 21.74,104.24 20.24,104.69 C19.14,105.02 16.28,105.03 14.54,104.92 C12.29,104.77 9.36,104.62 9.14,103.27 C9.01,102.5 9.34,100.01 12.97,99.82 C15.82,99.67 17.55,101.47 18,101.02 C19.04,99.96 24.48,91.69 24.48,91.69 Z" fill="#B99680"/>
  <path d="M16.93,69.29 C15.73,67.71 12.58,68.01 12.58,71.69 C12.58,75.82 14.57,77.06 15.88,77.54 C17.31,78.07 17.53,72.06 17.53,72.06 C17.53,72.06 18.13,70.87 16.93,69.29 Z" fill="#040000"/>
  <path d="M28.12,58.49 C26.32,58.49 20.14,58.86 16.94,64.42 C14.39,68.85 14.87,75.38 15.59,79.13 C16.34,83.03 19.53,91.58 28.42,91.51 C38.4,91.43 46.71,71.91 37.35,61.87 C34.27,58.56 29.92,58.49 28.12,58.49 Z" fill="#B99680"/>
  <path d="M32.8,70.34 C31.01,68.38 26.3,68.56 24.92,72.94 C23.91,76.13 25.73,80.4 28.95,80.4 C32.8,80.4 36.32,74.19 32.8,70.34 Z" fill="#020200"/>
  <path d="M44.51,66.66 C42.43,67.4 43.84,70.05 43.7,71.18 C43.56,72.31 42.52,74.13 44.24,75.08 C46.22,76.16 48.77,74.16 48.75,71 C48.73,67.84 46.67,65.89 44.51,66.66 Z" fill="#865E53"/>
  <path d="M44.63,85.5 C42.56,84.32 39.83,84.52 37.73,88.58 C35.63,92.63 31.5,102.46 30.3,104.94 C29.1,107.42 26.57,112.1 25.8,112.43 C25.27,112.66 24.37,110.48 20.4,110.85 C16.42,111.23 14.32,115.65 15.6,116.18 C16.88,116.71 19.65,116.78 22.65,116.71 C25.35,116.64 28.58,116.41 29.48,115.73 C30.38,115.05 34.01,110.53 36.08,107.12 C39.23,101.94 42.76,95.86 44.41,92.64 C45.27,90.92 47.25,87 44.63,85.5 Z" fill="#B99680"/>
  <path d="M55.38,93.36 C56.72,95.36 59.81,97.29 69.19,91.56 C79.22,85.43 91.85,66.02 92.8,64.79 C94.15,63.06 95.24,61.34 95.65,61.79 C96.2,62.39 96.18,65.47 97.23,68.84 C98.1,71.62 103.78,89.22 104.46,91.4 C105.71,95.4 108.92,107.21 109.99,108.42 C111.19,109.77 114.64,109.1 117.07,109.8 C119.14,110.4 122.07,111.8 123.27,111 C124.47,110.2 124.25,106.4 117.97,104.7 C113.59,103.51 113.44,103.92 113.44,103.92 C113.44,103.92 102.76,59.21 101.51,54.81 C100.29,50.51 99.63,50.01 98.36,49.93 C95.65,49.77 87.2,58.89 83.8,62.39 C80.4,65.89 72.17,75.17 61.51,82.8 C59.88,83.97 53.18,90.08 55.38,93.36 Z" fill="#B99680"/>
  <path d="M100.81,53.63 C100.55,53.63 100.29,53.5 100.14,53.27 C99.9,52.9 100,52.4 100.37,52.16 L103.27,50.26 C103.64,50.02 104.14,50.12 104.38,50.49 C104.62,50.86 104.52,51.36 104.15,51.6 L101.25,53.5 C101.11,53.59 100.96,53.63 100.81,53.63 Z" fill="#D4785D"/>
  <path d="M101.61,57.63 C101.29,57.63 100.99,57.44 100.87,57.12 C100.71,56.71 100.91,56.24 101.32,56.08 L105.42,54.48 C105.83,54.32 106.29,54.52 106.45,54.93 C106.61,55.34 106.41,55.81 106,55.97 L101.9,57.57 C101.81,57.62 101.71,57.63 101.61,57.63 Z" fill="#D4785D"/>
  <path d="M102.71,61.64 C102.35,61.64 102.03,61.4 101.94,61.03 C101.83,60.6 102.09,60.17 102.52,60.06 L106.52,59.06 C106.94,58.96 107.38,59.21 107.49,59.64 C107.6,60.07 107.34,60.5 106.91,60.61 L102.91,61.61 C102.84,61.63 102.78,61.64 102.71,61.64 Z" fill="#D4785D"/>
  <path d="M81.1,43.43 C80.87,43.43 80.64,43.33 80.48,43.13 C80.2,42.79 80.26,42.28 80.6,42.01 L83.2,39.91 C83.54,39.63 84.05,39.68 84.33,40.03 C84.61,40.37 84.55,40.88 84.21,41.15 L81.61,43.25 C81.45,43.37 81.28,43.43 81.1,43.43 Z" fill="#D4785D"/>
  <path d="M82.8,46.83 C82.46,46.83 82.15,46.61 82.04,46.27 C81.91,45.85 82.14,45.4 82.56,45.27 L86.36,44.07 C86.78,43.94 87.23,44.17 87.36,44.59 C87.49,45.01 87.26,45.46 86.84,45.59 L83.04,46.79 C82.96,46.82 82.88,46.83 82.8,46.83 Z" fill="#D4785D"/>
  <path d="M84,50.73 C83.6,50.73 83.25,50.43 83.21,50.02 C83.16,49.58 83.48,49.19 83.92,49.14 L87.62,48.74 C88.05,48.7 88.45,49.01 88.5,49.45 C88.55,49.89 88.23,50.28 87.79,50.33 L84.09,50.73 C84.06,50.73 84.03,50.73 84,50.73 Z" fill="#D4785D"/>
  <path d="M45.38,90.56 C45.84,93.1 52.28,91.76 54.79,90.86 C56.94,90.09 60.79,88.16 62.19,88.36 C63.59,88.56 69.39,99.37 70.6,101.77 C71.8,104.17 75.1,110.28 76,111.93 C76.79,113.38 77.7,115.08 79.3,115.58 C80.9,116.08 82.45,116.83 83.95,117.41 C85.43,117.98 88.33,121 90.18,119.44 C92.13,117.79 89.83,115.39 88.83,114.49 C87.83,113.59 86.66,112.74 84.78,112.09 C82.6,111.34 81.5,111.01 81.1,110.81 C80.7,110.61 73.88,95.64 71.79,91.47 C70.09,88.07 67.69,82.76 66.19,81.66 C64.69,80.56 53.78,82.96 52.68,83.46 C51.58,83.96 51.05,85.12 48.78,86.96 C47.18,88.25 45.18,89.45 45.38,90.56 Z" fill="#9C7866"/>
</svg>
